X:1
T:Title
%%score { ( 1 4 ) | ( 2 3 ) }
L:1/8
M:9/8
K:Eb
V:1 treble nm="Grand Piano"
V:4 treble 
V:2 bass 
V:3 bass 
V:1
 z3 z3[Q:1/4=100] [GB][_G=A][=GB] | [Ac]3 [GB]3 GFE | [EG]3 [DF]3 [DF][_D=E][=DF] | %3
 [FA]3- [FA]2 [EG] .[DF]2 [B,FA] | [B,EG]6 [GB][_G=A][=GB] | [Ac]3 [GB]3 [Ee][Fd][EGc] | %6
 B3 F3 z Bd | [Bf]3- [Bf]2 d cdc |[M:3/4] [DB]6 |[M:3/8] AG[DB] |[M:9/8] [DA]3 [DF]3 BA[Dc] | %11
 B3 G3 edc | B3- B2 G GFc |[M:21/16] B3- [AB]->[AB-]B-B3/2[EGB]G/-G/[Ac] | %14
[M:9/8] [GB]3 [EG]3 eB[Gf] | e3 c3 ed[E_Gc] | [EGB]3- [EGB]2 [EG] .[A,DF]2 [DB] |[M:3/4] E6 |] %18
V:2
 z3 z3 [E,E]2 [E,E] | z3 z3 .B,3 | [B,,B,]3 [B,,B,]3 [B,,B,]2 [B,,B,] | %3
 [B,,B,]3- [B,,B,]2 [B,,B,] z[K:treble] B[K:bass]B,, | E,6 [E,E]2 [E,E] | [E,E]3 [E,E]3 C,D,E, | %6
 [F,DF]3 [F,D]3 [F,D]2 [F,B,F] | [F,D]3- [F,D]2 [F,B,F] EF[F,=A,E] |[M:3/4] [B,,B,]6 | %9
[M:3/8] F, z z |[M:9/8] [B,,F,]3 [B,,A,]3 [B,,F,]2 [B,,A,] | [E,G,E]3 [E,B,E]3 CB,[E,A,E] | %12
 [E,G,E]3- [E,G,E]2 [E,B,E] [C,=A,]2 [F,A,E] |[M:21/16] z3 D3/2- D3 z E/-E/[E,E] | %14
[M:9/8] [E,E]3 [E,B,]3 [E,_D]2 [E,D] | [A,CA]3 [A,EA]3 [=A,_G]-[A,DG]A, | %16
 B,3- B,2 B, z[K:treble] c[K:bass][B,,A,] |[M:3/4] [E,G,]6 |] %18
V:3
 x9 | [E,E]3 [E,E]3 [E,E]-[E,A,E][E,G,] | x9 | z3 z3 .[B,,B,]3[K:treble][K:bass] | x9 | x9 | x9 | %7
 z3 z3 .[F,=A,]3 |[M:3/4] x6 |[M:3/8] B,,-[B,,=E,][B,,G,] |[M:9/8] x9 | z3 z3 .[E,E]3 | x9 | %13
[M:21/16] B,,3/2-B,,3/2-B,,3/2- B,,3 .E,3 |[M:9/8] x9 | z3 z3 .C3 | z3 z3 .B,,3[K:treble][K:bass] | %17
[M:3/4] x6 |] %18
V:4
 x9 | x9 | x9 | x9 | x9 | z3 z3 .G3 | z3 z3 .F3 | x9 |[M:3/4] x6 |[M:3/8] D2 z |[M:9/8] z3 z3 .D3 | %11
 x9 | z3 z3 .E3 |[M:21/16] [B,D]3 z3/2 z3/2 z3/2 z3 |[M:9/8] z3 z3 .G3 | x9 | x9 |[M:3/4] x6 |] %18

